svg/blobs-icons/no-decorations/mp3-player.svg

<svg xmlns="http://www.w3.org/2000/svg" xmlns:xlink="http://www.w3.org/1999/xlink" preserveAspectRatio="xMidYMid" width="204" height="215" viewBox="0 0 204 215"><defs><style>.cls-3{fill:#142a3b}.cls-4{fill:#000;opacity:.35}.cls-5{fill:#ededed}.cls-6{fill:#fbb713}</style></defs><g id="group-56svg"><path d="M114.284 214.292S0 214.292.0 214.292.0 54.489.0 54.489s114.284.0 114.284.0.0 159.803.0 159.803z" id="path-1" class="cls-3" fill-rule="evenodd"/><path d="M98.927 54.489s0 159.803.0 159.803 15.357.0 15.357.0.0-159.803.0-159.803-15.357.0-15.357.0z" id="path-2" class="cls-4" fill-rule="evenodd"/><path d="M91.695 154.768c0 19.06-15.47 34.511-34.553 34.511-19.083.0-34.553-15.451-34.553-34.511.0-19.059 15.47-34.51 34.553-34.51 19.083.0 34.553 15.451 34.553 34.51z" id="path-3" class="cls-5" fill-rule="evenodd"/><path d="M74.418 154.768C74.418 164.298 66.684 172.023 57.142 172.023 47.6 172.023 39.866 164.298 39.866 154.768 39.866 145.24 47.6 137.514 57.142 137.514s17.276 7.726 17.276 17.254z" id="path-4" class="cls-6" fill-rule="evenodd"/><path d="M71.094 144.668C73.162 147.513 74.418 150.983 74.418 154.768c0 9.53-7.735 17.255-17.276 17.255C53.352 172.023 49.878 170.769 47.03 168.702 50.17 173.021 55.229 175.857 60.981 175.857 70.522 175.857 78.258 168.132 78.258 158.602 78.258 152.858 75.417 147.805 71.094 144.668z" id="path-5" class="cls-4" fill-rule="evenodd"/><path d="M68.02 78.079c0 6-4.87 10.864-10.878 10.864-6.008.0-10.878-4.864-10.878-10.864s4.87-10.864 10.878-10.864C63.15 67.215 68.02 72.079 68.02 78.079z" id="path-6" class="cls-5" fill-rule="evenodd"/><path d="M200.406 150.511C198.422 150.511 196.906 148.902 196.906 146.919V100.011s-32 0-32 0 0-92.997.0-92.997-104 0-104 0 0 46.507.0 46.507c0 1.984-1.517 3.593-3.5 3.593-1.984.0-3.5-1.60899999999999-3.5-3.593V.014s118 0 118 0 0 92.997.0 92.997 32 0 32 0 0 53.908.0 53.908C203.906 148.902 202.389 150.511 200.406 150.511z" id="path-7" class="cls-3" fill-rule="evenodd"/><path d="M143.406 172.064C141.422 172.064 139.906 170.456 139.906 168.471V93.011s28.522.0 28.522.0C170.412 93.011 172.02 94.527 172.02 96.511 172.02 98.495 170.412 100.011 168.428 100.011H146.906s0 68.46.0 68.46C146.906 170.456 145.39 172.064 143.406 172.064z" id="path-8" class="cls-3" fill-rule="evenodd"/><path d="M160.906 186.009s-21 0-21 0 0-38.999.0-38.999 21 0 21 0 0 38.999.0 38.999zM146.906 179.008s7 0 7 0 0-24.999.0-24.999-7 0-7 0 0 24.999.0 24.999z" id="path-9" class="cls-3" fill-rule="evenodd"/><path d="M203.906 186.009s-21 0-21 0 0-38.999.0-38.999 21 0 21 0 0 38.999.0 38.999zM189.906 179.008s7 0 7 0 0-24.999.0-24.999-7 0-7 0 0 24.999.0 24.999z" id="path-10" class="cls-3" fill-rule="evenodd"/></g></svg>

<svg xmlns="http://www.w3.org/2000/svg" xmlns:xlink="http://www.w3.org/1999/xlink" preserveAspectRatio="xMidYMid" width="204" height="215" viewBox="0 0 204 215">
  <defs>
    <style>

      .cls-3 {
        fill: #142a3b;
      }

      .cls-4 {
        fill: #000000;
        opacity: 0.35;
      }

      .cls-5 {
        fill: #ededed;
      }

      .cls-6 {
        fill: #fbb713;
      }
    </style>
  </defs>
  <g id="group-56svg">
    <path d="M114.284,214.292 C114.284,214.292 -0.000,214.292 -0.000,214.292 C-0.000,214.292 -0.000,54.489 -0.000,54.489 C-0.000,54.489 114.284,54.489 114.284,54.489 C114.284,54.489 114.284,214.292 114.284,214.292 Z" id="path-1" class="cls-3" fill-rule="evenodd"/>
    <path d="M98.927,54.489 C98.927,54.489 98.927,214.292 98.927,214.292 C98.927,214.292 114.284,214.292 114.284,214.292 C114.284,214.292 114.284,54.489 114.284,54.489 C114.284,54.489 98.927,54.489 98.927,54.489 Z" id="path-2" class="cls-4" fill-rule="evenodd"/>
    <path d="M91.695,154.768 C91.695,173.828 76.225,189.279 57.142,189.279 C38.059,189.279 22.589,173.828 22.589,154.768 C22.589,135.709 38.059,120.258 57.142,120.258 C76.225,120.258 91.695,135.709 91.695,154.768 Z" id="path-3" class="cls-5" fill-rule="evenodd"/>
    <path d="M74.418,154.768 C74.418,164.298 66.684,172.023 57.142,172.023 C47.600,172.023 39.866,164.298 39.866,154.768 C39.866,145.240 47.600,137.514 57.142,137.514 C66.684,137.514 74.418,145.240 74.418,154.768 Z" id="path-4" class="cls-6" fill-rule="evenodd"/>
    <path d="M71.094,144.668 C73.162,147.513 74.418,150.983 74.418,154.768 C74.418,164.298 66.683,172.023 57.142,172.023 C53.352,172.023 49.878,170.769 47.030,168.702 C50.170,173.021 55.229,175.857 60.981,175.857 C70.522,175.857 78.258,168.132 78.258,158.602 C78.258,152.858 75.417,147.805 71.094,144.668 Z" id="path-5" class="cls-4" fill-rule="evenodd"/>
    <path d="M68.020,78.079 C68.020,84.079 63.150,88.943 57.142,88.943 C51.134,88.943 46.264,84.079 46.264,78.079 C46.264,72.079 51.134,67.215 57.142,67.215 C63.150,67.215 68.020,72.079 68.020,78.079 Z" id="path-6" class="cls-5" fill-rule="evenodd"/>
    <path d="M200.406,150.511 C198.422,150.511 196.906,148.902 196.906,146.919 C196.906,146.919 196.906,100.011 196.906,100.011 C196.906,100.011 164.906,100.011 164.906,100.011 C164.906,100.011 164.906,7.014 164.906,7.014 C164.906,7.014 60.906,7.014 60.906,7.014 C60.906,7.014 60.906,53.521 60.906,53.521 C60.906,55.505 59.389,57.114 57.406,57.114 C55.422,57.114 53.906,55.505 53.906,53.521 C53.906,53.521 53.906,0.014 53.906,0.014 C53.906,0.014 171.906,0.014 171.906,0.014 C171.906,0.014 171.906,93.011 171.906,93.011 C171.906,93.011 203.906,93.011 203.906,93.011 C203.906,93.011 203.906,146.919 203.906,146.919 C203.906,148.902 202.389,150.511 200.406,150.511 Z" id="path-7" class="cls-3" fill-rule="evenodd"/>
    <path d="M143.406,172.064 C141.422,172.064 139.906,170.456 139.906,168.471 C139.906,168.471 139.906,93.011 139.906,93.011 C139.906,93.011 168.428,93.011 168.428,93.011 C170.412,93.011 172.020,94.527 172.020,96.511 C172.020,98.495 170.412,100.011 168.428,100.011 C168.428,100.011 146.906,100.011 146.906,100.011 C146.906,100.011 146.906,168.471 146.906,168.471 C146.906,170.456 145.390,172.064 143.406,172.064 Z" id="path-8" class="cls-3" fill-rule="evenodd"/>
    <path d="M160.906,186.009 C160.906,186.009 139.906,186.009 139.906,186.009 C139.906,186.009 139.906,147.010 139.906,147.010 C139.906,147.010 160.906,147.010 160.906,147.010 C160.906,147.010 160.906,186.009 160.906,186.009 ZM146.906,179.008 C146.906,179.008 153.906,179.008 153.906,179.008 C153.906,179.008 153.906,154.009 153.906,154.009 C153.906,154.009 146.906,154.009 146.906,154.009 C146.906,154.009 146.906,179.008 146.906,179.008 Z" id="path-9" class="cls-3" fill-rule="evenodd"/>
    <path d="M203.906,186.009 C203.906,186.009 182.906,186.009 182.906,186.009 C182.906,186.009 182.906,147.010 182.906,147.010 C182.906,147.010 203.906,147.010 203.906,147.010 C203.906,147.010 203.906,186.009 203.906,186.009 ZM189.906,179.008 C189.906,179.008 196.906,179.008 196.906,179.008 C196.906,179.008 196.906,154.009 196.906,154.009 C196.906,154.009 189.906,154.009 189.906,154.009 C189.906,154.009 189.906,179.008 189.906,179.008 Z" id="path-10" class="cls-3" fill-rule="evenodd"/>
  </g>
</svg>
